!!!COM:	la Rue, Pierre de
!!!CDT:	~1452///-1518/11/20
!!!OPR:	Missa Pro fidelibus defunctis
!!!ONM:	6
!!!OTL:	Agnus Dei
!!!AGN:	Mass; Agnus Dei
!!!SCT:	Rue1024f
!!!SCA:	Rue1024f
!!!voices-OPR:	4-5
!!!voices:	5
**kern	**kern	**kern	**kern	**kern
*Ivox	*Ivox	*Ivox	*Ivox	*Ivox
*I"Bassus	*I"Tenor2	*I"Tenor	*I"Contra	*I"Discantus
*I'B	*I'T2	*I'T	*I'C	*I'D
*staff5	*staff4	*staff3	*staff2	*staff1
*>[A,B,C]	*>[A,B,C]	*>[A,B,C]	*>[A,B,C]	*>[A,B,C]
*>A	*>A	*>A	*>A	*>A
*clefF4	*clefF4	*clefF4	*clefF4	*clefGv2
*k[b-]	*k[b-]	*k[b-]	*k[b-]	*k[b-]
*M3/1	*M3/1	*M3/1	*M3/1	*M3/1
*met(O)	*met(O)	*met(O)	*met(O)	*met(O)
!!section: Qui tollis I
!!!OMD: Qui tollis I
=1-	=1-	=1-	=1-	=1-
0.r	1DD	0D	0AA	0.r
.	1FF	.	.	.
.	1GG	1D	1BB-	.
=2	=2	=2	=2	=2
1DD	0AA	[0.D	2AA/	0A
.	.	.	1D	.
1FF	.	.	.	.
.	.	.	2C/	.
1GG	1r	.	1BB-	1B-
=3	=3	=3	=3	=3
[0.DD	0FF	0.D]	2.F\	2A/
.	.	.	.	1d
.	.	.	4G\	.
.	.	.	2B-\	.
.	.	.	2A\	2c\
.	1FF	.	[1F	2B-\
.	.	.	.	[2A/
=4	=4	=4	=4	=4
1DD]	1FF	0D	2F\]	2A/]
.	.	.	1A	2F/
1r	2.BB-/	.	.	2G/
.	.	.	1G	2B-\
.	4C/	.	.	.
1DD	1D	1D	.	1A
.	.	.	2F#i\	.
=5	=5	=5	=5	=5
0EE-	0GG	0.BB-	0G	0G
1DD	1FF	.	1r	1d
=6	=6	=6	=6	=6
[0.CC	0.GG	[0.C	1.G	1.e
.	.	.	2E\	2c\
.	.	.	1E	1c
=7	=7	=7	=7	=7
1CC]	2r	0.C]	2r	2r
.	2GG/	.	1E	1c
1r	2AA/	.	.	.
.	2BB-/	.	1G	2d\
1r	2C/	.	.	2e\
.	[2FF/	.	[2A\	[2f\
=8	=8	=8	=8	=8
0.r	1FF]	[0.D	2A\]	2f\]
.	.	.	2A\	2e\
.	1.GG	.	2.B-\	2d\
.	.	.	.	2c\
.	.	.	4A\	.
.	.	.	2G\	2.B-\
.	2BB-/	.	2F\	.
.	.	.	.	4A/
=9	=9	=9	=9	=9
2r	2.BB-/	0D]	1G	0G
2GG/	.	.	.	.
.	4AA/	.	.	.
2.GG/	1GG	.	2r	.
.	.	.	2G\	.
4FF/	.	.	.	.
2EE/	2r	1r	1G	1r
2DD/	2G\	.	.	.
=10	=10	=10	=10	=10
0CC	2.G\	0.r	2E\	2r
.	.	.	2C/	2g\
.	4F\	.	.	.
.	2E\	.	0G	2.g\
.	2D\	.	.	.
.	.	.	.	4f\
1r	2.C/	.	.	2e\
.	.	.	.	2d\
.	4BB-/	.	.	.
=11	=11	=11	=11	=11
2r	0AA	0.C	0A	2.c\
2C/	.	.	.	.
.	.	.	.	4B-\
2.C/	.	.	.	0A
4BB-/	.	.	.	.
2AA/	1AA	.	1E	.
2GG/	.	.	.	.
=12	=12	=12	=12	=12
2.FF/	1AA	[0.D	0A	1r
4EE/	.	.	.	.
0DD	2r	.	.	2r
.	2D\	.	.	2f\
.	2.D\	.	[1F	2.f\
.	4C/	.	.	4e\
=13	=13	=13	=13	=13
0.r	2BB-/	1D]	1F]	2d\
.	2AA/	.	.	2c\
.	[0GG	0E-i	1G	2.B-\
.	.	.	.	4A/
.	.	.	1r	[1G
=14	=14	=14	=14	=14
0CC	0.GG_	0C	1G	1G]
.	.	.	0G	2c\
.	.	.	.	1c
1GG	.	1D	.	.
.	.	.	.	2Bni\
=15	=15	=15	=15	=15
1CC	1GG]	1C	1E	1c
0BBB-	0BB-	0D	2D\	0f
.	.	.	2.B-\	.
.	.	.	4A\	.
.	.	.	2F\	.
=16	=16	=16	=16	=16
1CC	1GG	1C	1c	1e
1DD	1FF	0F	1A	1.d
1BBB-	1BB-	.	1B-	.
.	.	.	.	2c\
=17	=17	=17	=17	=17
1CC	1GG	1E	1r	0c
0GG	1r	0D	0G	.
.	[1GG	.	.	1Bni
=18	=18	=18	=18	=18
0.CCl	2GG/]	0.Cl	1G	0.cl
.	2GG/	.	.	.
.	0GGl	.	0El	.
!!LO:LB:i:g=z
=19||	=19||	=19||	=19||	=19||
*>B	*>B	*>B	*>B	*>B
*clefF4	*clefF4	*clefF4	*clefF4	*clefGv2
*k[b-]	*k[b-]	*k[b-]	*k[b-]	*k[b-]
*M3/1	*M3/1	*M3/1	*M3/1	*M3/1
*met(3)	*met(3)	*met(3)	*met(3)	*met(3)
!!section: Qui tollis II
!!!OMD: Qui tollis II
0GG	0BB-	0D	0G	0B-
1GG	1BB-	1D	1G	1B-
=20	=20	=20	=20	=20
1BB-	0GG	1D	[0.G	0B-
1EE-	.	1BB-	.	.
[1BB-	[1GG	[1D	.	[1B-
=21	=21	=21	=21	=21
1BB-]	1GG]	1D]	1G]	1B-]
0FF	0AA	0C	0F	0c
=22	=22	=22	=22	=22
0BB-	1.GG	0D	0G	0B-
.	2AA/	.	.	.
1GG	1BB-	1r	1G	1r
=23	=23	=23	=23	=23
1FF	1.C	0.r	1A	0.r
0GG	.	.	1.B-	.
.	2BB-/	.	.	.
.	1BB-	.	.	.
.	.	.	2G\	.
=24	=24	=24	=24	=24
[0.FF	1C	0.r	0A	0.r
.	1.D	.	.	.
.	.	.	1F	.
.	2C/	.	.	.
=25	=25	=25	=25	=25
0FF]	1C	[0.C	0.F	0c
.	0AA	.	.	.
1FF	.	.	.	1A
=26	=26	=26	=26	=26
1EE	1.C	1C]	0.r	1G
0DD	.	0D	.	0d
.	2BB-/	.	.	.
.	1BB-	.	.	.
=27	=27	=27	=27	=27
0CC	0.C	0.E	0G	0G
1r	.	.	1G	1r
=28	=28	=28	=28	=28
0C	0.r	0C	0G	0c
1GG	.	1D	1G	1B-
=29	=29	=29	=29	=29
1C	0.r	1E	1A	1c
0BB-	.	1.F	1.B-	1.d
.	.	2E\	2G\	2c\
=30	=30	=30	=30	=30
1C	1r	0E	0G	0c
0GG	1r	.	.	.
.	1GG	1D	1G	1B-
=31	=31	=31	=31	=31
1C	1AA	1C	1F	1c
0BB-	0D	0F	0B-	1.d
.	.	.	.	2c\
=32	=32	=32	=32	=32
1C	1AA	1E	1A	1c
1GG	1BB-	1.D	1.G	1.B-
1BB-	1GG	.	.	.
.	.	2C/	2F\	2A/
=33	=33	=33	=33	=33
0.FFl	0.AAl	0.Cl	0.Fl	0.Al
!!LO:LB:i:g=z
=34||	=34||	=34||	=34||	=34||
*>C	*>C	*>C	*>C	*>C
*clefF4	*clefF4	*clefF4	*clefF4	*clefGv2
*k[b-]	*k[b-]	*k[b-]	*k[b-]	*k[b-]
*M3/1	*M3/1	*M3/1	*M3/1	*M3/1
*met(3)	*met(3)	*met(3)	*met(3)	*met(3)
!!section: Qui tollis III
!!!OMD: Qui tollis III
0.r	1DD	0D	0AA	0.r
.	1FF	.	.	.
.	1GG	1D	1BB-	.
=35	=35	=35	=35	=35
1DD	0AA	[0.D	2AA/	0A
.	.	.	1D	.
1FF	.	.	.	.
.	.	.	2C/	.
1GG	1r	.	1BB-	1B-
=36	=36	=36	=36	=36
[0.DD	0FF	0.D]	2.F\	2A/
.	.	.	.	1d
.	.	.	4G\	.
.	.	.	2B-\	.
.	.	.	2A\	2c\
.	1FF	.	[1F	2B-\
.	.	.	.	[2A/
=37	=37	=37	=37	=37
1DD]	1FF	0D	2F\]	2A/]
.	.	.	1A	2F/
1r	2.BB-/	.	.	2G/
.	.	.	1G	2B-\
.	4C/	.	.	.
1DD	1D	1D	.	1A
.	.	.	2F#i\	.
=38	=38	=38	=38	=38
0EE-	0GG	0.BB-	0G	0G
1DD	1FF	.	1r	1d
=39	=39	=39	=39	=39
[0.CC	0.GG	[0.C	1.G	1.e
.	.	.	2E\	2c\
.	.	.	1E	1c
=40	=40	=40	=40	=40
1CC]	2r	0.C]	2r	2r
.	2GG/	.	1E	1c
1r	2AA/	.	.	.
.	2BB-/	.	1G	2d\
1r	2C/	.	.	2e\
.	[2FF/	.	[2A\	[2f\
=41	=41	=41	=41	=41
0.r	1FF]	[0.D	2A\]	2f\]
.	.	.	2A\	2e\
.	1.GG	.	2.B-\	2d\
.	.	.	.	2c\
.	.	.	4A\	.
.	.	.	2G\	2.B-\
.	2BB-/	.	2F\	.
.	.	.	.	4A/
=42	=42	=42	=42	=42
2r	2.BB-/	0D]	1G	0G
2GG/	.	.	.	.
.	4AA/	.	.	.
2.GG/	1GG	.	2r	.
.	.	.	2G\	.
4FF/	.	.	.	.
2EE/	2r	1r	1G	1r
2DD/	2G\	.	.	.
=43	=43	=43	=43	=43
0CC	2.G\	0.r	2E\	2r
.	.	.	2C/	2g\
.	4F\	.	.	.
.	2E\	.	0G	2.g\
.	2D\	.	.	.
.	.	.	.	4f\
1r	2.C/	.	.	2e\
.	.	.	.	2d\
.	4BB-/	.	.	.
=44	=44	=44	=44	=44
2r	0AA	0.C	0A	2.c\
2C/	.	.	.	.
.	.	.	.	4B-\
2.C/	.	.	.	0A
4BB-/	.	.	.	.
2AA/	1AA	.	1E	.
2GG/	.	.	.	.
=45	=45	=45	=45	=45
2.FF/	1AA	[0.D	0A	1r
4EE/	.	.	.	.
0DD	2r	.	.	2r
.	2D\	.	.	2f\
.	2.D\	.	[1F	2.f\
.	4C/	.	.	4e\
=46	=46	=46	=46	=46
0.r	2BB-/	1D]	1F]	2d\
.	2AA/	.	.	2c\
.	[0GG	0E-i	1G	2.B-\
.	.	.	.	4A/
.	.	.	1r	[1G
=47	=47	=47	=47	=47
0CC	0.GG_	0C	1G	1G]
.	.	.	0G	2c\
.	.	.	.	1c
1GG	.	1D	.	.
.	.	.	.	2Bni\
=48	=48	=48	=48	=48
1CC	1GG]	1C	1E	1c
0BBB-	0BB-	0D	2D\	0f
.	.	.	2.B-\	.
.	.	.	4A\	.
.	.	.	2F\	.
=49	=49	=49	=49	=49
1CC	1GG	1C	1c	1e
1DD	1FF	0F	1A	1.d
1BBB-	1BB-	.	1B-	.
.	.	.	.	2c\
=50	=50	=50	=50	=50
1CC	1GG	1E	1r	0c
1GG	1r	0D	1.G	.
1GG	2GG/	.	.	1Bni
.	2GG/	.	2G\	.
=51	=51	=51	=51	=51
0.CCl	1GG	0.Cl	1G	0.cl
.	0GGl	.	0El	.
==	==	==	==	==
*-	*-	*-	*-	*-
!!!RDF**kern: l=long note in original notation
!!!RDF**kern: i=editorial accidental
!!!ENC:	Chris Gage 05-02-2013
!!!END:	2013/08/01/
!!!EED:	Jesse Rodin
!!!EEV:	2013/08/02/
!!!ONB:	Translated from MusicXML and edited on 2013/08/02/ by Craig Sapp
!!muse2ps: T^@{OPR}^u^@{ONM}{. }@{OTL}^C^@{COM}^i2I150v85,85,85,85,130Q8c90
